X: 130351
T: Morrison's
S: De Danann
Z: B.Black
R: reel
M: 4/4
L: 1/8
K: D
d/B/ |: A2 AB A2 FA | BFAF GFED | (3FED FD ADFD |\
Bdeg fd d2 |
A2 AB A2 FA |BFAF GFED |(3FED FD ADFD |1 Bdeg fd dB :|2\
Bdeg fd ||
e2 | fgaf g2 ef | gfed cA (3AGA | fgaf g2 fg |\
(3aba ge fd d2 |
fgaf g2 ef | gfed cA (3AGA | B3 d cdec |1 d2 eg fd :|2\
d2 eg fd d2 ||
